!!!COM: Beethoven, Ludwig van
!!!CDT: 1770///-1827///
!!!OTL: Piano Sonata no. 18 in E-flat major
!!!OTP: the hunt
!!!ODT: 1794///-1795///
!!!OPS: 31
!!!ONM: 3
!!!OMV: 2
!!!OMD: Scherzo: Allegretto vivace
!!!AGN: Scherzo
**kern	**kern	**dynam
*staff2	*staff1	*staff1/2
*Ipiano	*Ipiano	*Ipiano
*>[I,A,A1,A,A2,B]	*>[I,A,A1,A,A2,B]	*>[I,A,A1,A,A2,B]
*>norep[I,A,A2,B]	*>norep[I,A,A2,B]	*>norep[I,A,A2,B]
*>I	*>I	*>I
*clefF4	*clefF4	*clefF4
*k[b-e-a-d-]	*k[b-e-a-d-]	*k[b-e-a-d-]
*A-:	*A-:	*A-:
*M2/4	*M2/4	*M2/4
*MM100	*MM100	*MM100
=1-	=1-	=1-
16r	4.E-\ 4.A-\ 4.c\	p
16AAA-'/LL	.	.
16CC'/	.	.
16EE-'/JJ	.	.
16AA-'/LL	.	.
16AAA-'/	.	.
16BBB-'/	8E-\ 8G\ 8d-\	.
16BB-'/JJ	.	.
=2	=2	=2
16r	4.E-\ 4.A-\ 4.e-\	.
16CC'/LL	.	.
16EE-'/	.	.
16AA-'/JJ	.	.
16C'/LL	.	.
16CC'/	.	.
16DD-'/	[8F\ 8f\	.
16D-'/JJ	.	.
=3!|:	=3!|:	=3!|:
*>A	*>A	*>A
16BBB-'/LL	8F\] (8d-\L	.
16BB-'/	.	.
16GGG'/	8B-\ 8e-\)	.
16GG'/JJ	.	.
16AAA-'/LL	8E-'\ 8c'\	.
16AA-'/	.	.
16CC'/	8E-'\ 8A-'\J	.
16C'/JJ	.	.
=4	=4	=4
16EE-'\LL	[4G\ [4B-\	.
16E-'\	.	.
16E-'\	.	.
16E-'\JJ	.	.
16E-'\LL	16G\] 16B-\LL]	.
16D-'\	16E-'\ 16G'\	.
16C'\	16F'\ 16A-'\	.
16BB-'\JJ	16G'\ 16B-'\JJ	.
=5	=5	=5
16AA-'/LL	4.E-\ 4.A-\ 4.c\	.
16AAA-'/	.	.
16CC'/	.	.
16EE-'/JJ	.	.
16AA-'/LL	.	.
16AAA-'/	.	.
16BBB-'/	8E-\ 8G\ 8d-\	.
16BB-'/JJ	.	.
=6	=6	=6
16r	4.E-\ 4.A-\ 4.e-\	.
16CC'/LL	.	.
16EE-'/	.	.
16AA-'/JJ	.	.
16C'/LL	.	.
16CC'/	.	.
16DD-'/	[8F\ 8f\	.
16D-'/JJ	.	.
=7	=7	=7
16BBB-'/LL	8F\] (8d-\L	.
16BB-'/	.	.
16GGG'/	8B-\ 8e-\)	.
16GG'/JJ	.	.
16AAA-'/LL	8E-\ 8c\	.
16AA-'/	.	.
16CC'/	8E-'\ 8A-'\J	.
16C'/JJ	.	.
=8	=8	=8
16EE-'/LL	4D-\ 4E-\ (4B-\	.
16EE-'/	.	.
16GG'/	.	.
16EE-'/JJ	.	.
8AAA-'/ 8AA-'/	8C'\ 8E-'\ 8A-'\)	.
*clefG2	*clefG2	*clefG2
8A-/ 8a-/	8cc\ 8aa-\	<
=9	=9	=9
4e-/ (4g/	4dd-\ (4bb-\	>
8A-/ 8a-/)	8cc\ 8aa-\)	.
*clefF4	*	*
8c'\	8cc'\	pp
=10	=10	=10
8..B-\L	8..b-/L	.
32A-\Jkk	32a-/Jkk	.
8G'\L	8g'/L	.
8F'\J	8f'/J	.
=11	=11	=11
4En\	4en/	.
8r	8r	.
8F\	8f/	.
=12	=12	=12
8..G\L	8..g/L	.
32F\Jkk	32f/Jkk	.
8En'\L	8en'/L	.
8Dn'\J	8dn'/J	.
=13	=13	=13
4C/	4c/	.
8r	8r	.
16.r	16.r	.
32C/	32c/	pp
=14	=14	=14
8C/	8c/	.
16.r	16.r	.
32C/	32c/	.
8C/	8c/	.
16.r	16.r	.
32C/	32c/	.
=15	=15	=15
8C/	8c/	.
8r	8r	.
8r	8r	.
16.r	16.r	.
32D-\	32d-/	<
=16	=16	=16
8D-\	8d-/	.
16.r	16.r	.
32D-\	32d-/	.
8D-\	8d-/	.
16.r	16.r	.
32D-\	32d-/	.
=17	=17	=17
8D-\	8d-/	.
8r	8r	.
8r	8r	.
16.r	16.r	.
32D-\	32d-/	f
=18	=18	=18
(4D-/	(4d-/	.
8BB-'/L)	8B-'/L)	.
8GG'/J	8G'/J	.
*	*clefF4	*clefF4
=19	=19	=19
4.EE-;/	4.E-;\	.
8r	(40E-\LLL	p
.	40F\	.
.	40G\	.
.	40A-\	.
.	40B-\JJJ)	.
=20	=20	=20
16r	4.c\	.
16AAA-'/LL	.	.
16CC'/	.	.
16EE-'/JJ	.	.
16AA-'/LL	.	.
16AAA-'/	.	.
16BBB-'/	8E-\ 8G\ 8d-\	.
16BB-'/JJ	.	.
=21	=21	=21
16r	4.E-\ 4.A-\ 4.e-\	.
16CC'/LL	.	.
16EE-'/	.	.
16AA-'/JJ	.	.
16C'/LL	.	.
16CC'/	.	.
16DD-'/	[8F\ 8f\	.
16D-'/JJ	.	.
=22	=22	=22
16BBB-'/LL	8F\] (8d-\L	.
16BB-'/	.	.
16GGG'/	8B-\ 8e-\)	.
16GG'/JJ	.	.
16AAA-'/LL	8E-'\ 8c'\	.
16AA-'/	.	.
16CC'/	8E-'\ 8A-'\J	.
16C'/JJ	.	.
=23	=23	=23
16EE-'\LL	[4G\ [4B-\	.
16E-'\	.	.
16E-'\	.	.
16E-'\JJ	.	.
16E-'\LL	16G\] 16B-\LL]	.
16D-'\	16E-'\ 16G'\	.
16C'\	16F'\ 16A-'\	.
16BB-'\JJ	16G'\ 16B-'\JJ	.
=24	=24	=24
16AA-'/LL	4.E-\ 4.A-\ 4.c\	.
16AAA-'/	.	.
16CC'/	.	.
16EE-'/JJ	.	.
16AA-'/LL	.	.
16AAA-'/	.	.
16BBB-'/	8E-\ 8G\ 8d-\	.
16BB-'/JJ	.	.
=25	=25	=25
16r	4.E-\ 4.A-\ 4.e-\	.
16CC'/LL	.	.
16EE-'/	.	.
16AA-'/JJ	.	.
16C'/LL	.	.
16CC'/	.	.
16DD-'/	[8F\ 8f\	.
16D-'/JJ	.	.
=26	=26	=26
16BBB-'/LL	8F\] (8d-\L	.
16BB-'/	.	.
16GGG'/	8B-\ 8e-\)	.
16GG'/JJ	.	.
16AAA-'/LL	8E-'\ 8c'\	.
16AA-'/	.	.
16CC'/	8E-'\ 8A-'\J	.
16C'/JJ	.	.
=27	=27	=27
16EE-'/LL	4D-\ 4E-\ (4B-\	.
16EE-'/	.	.
16GG'/	.	.
16EE-'/JJ	.	.
8AAA-'/ 8AA-'/	8C'\ 8E-'\ 8A-'\)	.
*clefG2	*clefG2	*clefG2
8A-/ 8a-/	8cc\ 8aa-\	.
=28	=28	=28
4e-/ (4g/	4dd-\ (4bb-\	>
8A-/ 8a-/)	8cc\ 8aa-\)	.
8cc\	8ccc'\	pp
=29	=29	=29
8..b-/L	8..bb-\L	.
32a-/Jkk	32aa-\Jkk	.
8g'/L	8gg'\L	.
8f'/J	8ff'\J	.
=30	=30	=30
4en/	4een\	.
8r	8r	.
8f/	8ff\	.
=31	=31	=31
8..g/L	8..gg\L	.
32f/Jkk	32ff\Jkk	.
8en'/L	8een'\L	.
8dn'/J	8ddn'\J	.
=32	=32	=32
4c/	4cc\	.
8r	8r	.
16.r	16.r	.
32c/	32cc\	.
=33	=33	=33
8c/	8cc\	.
16.r	16.r	.
32c/	32cc\	.
8c/	8cc\	.
16.r	16.r	.
32c/	32cc\	.
=34	=34	=34
8c/	8cc\	.
8r	8r	.
8r	8r	.
16.r	16.r	.
*clefF4	*	*
32FF'/ 32AAn'/ 32C'/ 32F'/	32ff'\ 32aan'\ 32ccc'\ 32fff'\	ff
=35	=35	=35
8FF'/ 8AAn'/ 8C'/ 8F'/	8ff'\ 8aan'\ 8ccc'\ 8fff'\	.
16An'\LL	16f'/LL	p
16c'\JJ	16an'/JJ	.
16B-'\LL	16g'/LL	.
16c'\	16b-'/	.
16G'\	16en'/	.
16c'\JJ	16g'/JJ	.
=36	=36	=36
16An'\LL	16f'/LL	.
16c'\	16an'/	.
16A'\	16f'/	.
16c'\JJ	16a'/JJ	.
16B-'\LL	16g'/LL	.
16c'\	16b-'/	.
16G'\	16en'/	.
16c'\JJ	16g'/JJ	.
=37	=37	=37
16An'\LL	16f'/LL	.
16c'\	16an'/	.
16e-'\	16cc'/	.
16c'\JJ	16a'/JJ	.
*clefG2	*	*
16c'/LL	16a'\LL	.
16e-'/	16cc'\	.
16g-'/	16ee-'\	.
16e-'/JJ	16cc'\JJ	.
=38	=38	=38
16e-'/LL	16cc'\LL	.
16g-'/	16ee-'\	.
16an'/	16gg-'\	.
16g-'/JJ	16ee-'\JJ	.
16f'/LL	16dd-'\LL	.
16a'/	16ff'\	.
16e-'/	16cc'\	.
16a'/JJ	16ff'\JJ	.
*clefF4	*	*
=39	=39	=39
8BBB-/ 8DDn/ 8FF/ 8BB-/	8b-'\ 8ddn'\ 8ff'\ 8bb-'\	ff
*clefG2	*	*
16dn'/LL	16b-'\LL	p
16f'/JJ	16dd'\JJ	.
16e-'/LL	16cc'\LL	.
16g-'/	16ee-'\	.
16c'/	16an'\	.
16e-'/JJ	16cc'\JJ	.
=40	=40	=40
16dn'/LL	16b-'\LL	.
16f'/	16ddn'\	.
16d'/	16b-'\	.
16f'/JJ	16dd'\JJ	.
16e-'/LL	16cc'\LL	.
16g-'/	16ee-'\	.
16c'/	16an\	.
16e-'/JJ	16cc'\JJ	.
=41	=41	=41
16dn'/LL	16b-'\LL	<
16f'/	16ddn'\	.
16a-'/	16ff'\	.
16f/JJ	16dd'\JJ	.
16f'/LL	16dd'\LL	.
16a-'/	16ff'\	.
16cc-'/	16aa-'\	.
16a-'/JJ	16ff'\JJ	.
=42	=42	=42
16a-'\LL	16ff'\LL	.
16cc-'\	16aa-'\	.
16ddn'\	16ccc-'\	.
16cc-'\JJ	16aa-'\JJ	.
16dd'\LL	16ccc-'\LL	.
16ff'\	16dddn'\	.
16aa-'\JJ	16fff'\	.
32r	16ddd'\JJ	.
32a-\ 32cc-\	.	.
=43	=43	=43
8a-'\ 8cc-'\	16fff'\LL	.
.	16dddn'\	.
16.r	16fff'\	.
.	16ddd'\JJ	.
32a-\ 32cc-\	.	.
8a-'\ 8cc-'\	16fff'\LL	.
.	16ddd'\	.
16.r	16fff'\	.
.	16ddd'\JJ	.
32a-\ 32cc-\	.	.
=44	=44	=44
8a-'\ 8cc-'\	16fff'\LL	>
.	16dddn'\	.
16.r	16fff'\	.
.	16ddd'\JJ	.
32a-\ 32cc-\	.	.
8gn'\ 8b-'\	16eee-'\LL	.
.	16bb-'\	.
16.r	16gg'\	.
.	16ee-'\JJ	.
32g\ 32b-\	.	.
=45	=45	=45
8a-'\ 8cc-'\	16ddn'\LL	<
.	16dddn'\	.
16.r	16fff'\	.
.	16ddd'\JJ	.
32a-\ 32cc-\	.	.
8a-'\ 8cc-'\	16fff'\LL	.
.	16ddd'\	.
16.r	16fff'\	.
.	16ddd'\JJ	.
32a-\ 32cc-\	.	.
=46	=46	=46
8a-'\ 8cc-'\	16fff'\LL	>
.	16dddn'\	.
16.r	16fff'\	.
.	16ddd'\JJ	.
32a-\ 32cc-\	.	.
8g\ 8b-\	16eee-'\LL	.
.	16bb-'\	.
16.r	16gg'\	.
.	16ee-'\JJ	.
32g\ 32b-\	.	.
=47	=47	=47
8a-'\ 8cc-'\	16ddn'\LL	<
.	16dddn'\	.
16.r	16fff'\	.
.	16ddd'\JJ	.
32a-\ 32cc-\	.	.
8g'\ 8b-'\	16eee-'\LL	>
.	16bb-'\	.
16.r	16gg'\	.
.	16ee-'\JJ	.
32g\ 32b-\	.	.
=48	=48	=48
8a-'\ 8cc-'\	16ddn'\LL	<
.	16dddn'\	.
16.r	16fff'\	.
.	16ddd'\JJ	.
32a-\ 32cc-\	.	.
8g'\ 8b-'\	16eee-'\LL	>
.	16bb-'\	.
*clefF4	*	*
16.r	16gg'\	.
.	16ee-'\JJ	.
32G\	.	.
=49	=49	=49
*^	*	*
4r	8A-'\	16ccn'/LL	.
.	.	16a-/	.
.	16.r	16e-'/	.
.	.	16c'/JJ	.
.	32AA-\	.	.
16B-/LL	8BB-\	4r	.
16F/	.	.	.
16Dn/	16.r	.	.
16BB-/JJ	.	.	.
.	32BBB-\	.	.
*v	*v	*	*
=50	=50	=50
16EE-'\LL	8E-'/	pp
16BB-'\ 16E-'\	.	.
16E-'\ 16G'\	16r	.
16BB-'\ 16E-'\JJ	16b-'/	.
16E-'\ 16G'\LL	8g'/	.
16BB-'\ 16E-'\	.	.
16E-'\ 16G'\	16r	.
16BB-'\ 16E-'\JJ	16ee-'\	.
=51	=51	=51
16E-'\ 16G'\LL	8b-'\	.
16BB-'\ 16E-'\	.	.
16E-'\ 16G'\	16r	.
16BB-'\ 16E-'\JJ	16gg'\	.
16F'\ 16A-'\LL	(16ddn\LL	.
16BB-'\ 16F'\	16aa-\)	.
16F'\ 16A-'\	16ff'\	.
16BB-'\ 16F'\JJ	16dd'\JJ	.
=52	=52	=52
16EE-'\LL	8ee-'\	.
16BB-'\ 16E-'\	.	.
16E-'\ 16G'\	16r	.
16BB-'\ 16E-'\JJ	16b-'\	.
16E-'\ 16G'\LL	8g'/	.
16BB-'\ 16E-'\	.	.
16E-'\ 16G'\	16r	.
16BB-'\ 16E-'\JJ	16ee-'\	.
=53	=53	=53
16E-'\ 16G'\LL	8b-'\	.
16BB-'\ 16E-'\	.	.
16E-'\ 16G'\	16r	.
16BB-'\ 16E-'\JJ	16gg'\	.
16F'\ 16A-'\LL	(16ddn\LL	.
16BB-'\ 16F'\	16aa-\)	.
16F'\ 16A-'\	16ff'\	.
16BB-'\ 16F'\JJ	16dd'\JJ	.
=54	=54	=54
16EE-'\LL	8ee-'\	.
16BB-'\ 16E-'\	.	.
16E-'\ 16G'\	16r	.
16BB-'\ 16E-'\JJ	(16eee-'\	.
16F'\ 16A-'\LL	16dddn\LL	.
16BB-'\ 16F'\	16fff\)	.
16F'\ 16A-'\	16ddd'\	.
16BB-'\ 16F'\JJ	16fff'\JJ	.
=55	=55	=55
16EE-'\LL	8eee-'\	.
16BB-'\ 16E-'\	.	.
16E-'\ 16G'\	16r	.
16BB-'\ 16E-'\JJ	16gg'\	.
16F'\ 16A-'\LL	(16ddn\LL	.
16BB-'\ 16F'\	16aa-\)	.
16F'\ 16A-'\	16ff'\	.
16BB-'\ 16F'\JJ	16dd'\JJ	.
=56	=56	=56
8E-\ 8G\	16ee-'\LL	pp
.	16gg'\	.
8r	16b-'\	.
.	16ee-'\JJ	.
4r	16g'/LL	.
.	16b-'/	.
.	16a-'/	.
.	16f'/JJ	.
=57	=57	=57
16E-'\LL	16e-'/LL	.
16G'\	16g'/	.
16BB-'\	16B-'/	.
16E-'\JJ	16e-'/JJ	.
*	*clefF4	*clefF4
16GG'/LL	16G'\LL	.
16BB-'/	16B-'\	.
16AA-'/	16A-'\	.
16FF'/JJ	16F'\JJ	.
=58	=58	=58
8EE-'/	16E-'\LL	.
.	16G'\	.
8r	16BB-'\	.
.	16E-'\JJ	.
8EE-'/	16r	.
.	16BB-'/LL	.
8r	16GG'/	.
.	16BB-'/JJ	.
=59	=59	=59
8EE-'/	16r	.
.	16BB-'/LL	.
8r	16GG'/	.
.	16BB-'/JJ	.
8EE-'/	16r	.
.	16BB-'/LL	.
8r	16GG'/	.
.	16BB-'/JJ	.
=60	=60	=60
8EE-'/	16r	.
.	16BBn'/LL	<
8r	16GG'/	.
.	16BB'/JJ	.
8EE-'/	16r	.
.	16BB'/LL	.
8r	16GG'/	.
.	16BB'/JJ	.
=61	=61	=61
8EE-'/	16r	.
.	16BBn'/LL	.
8r	16GG'/	.
.	16BB'/JJ	.
8EE-'/	16r	.
.	16BB'/LL	.
8r	16GG'/	.
.	16BB'/JJ	.
=62	=62	=62
*>A1	*>A1	*>A1
16r	4.C\ 4.c\	p
16AAA-'/LL	.	.
16CC'/	.	.
16EE-'/JJ	.	.
16AA-'/LL	.	.
16AAA-'/	.	.
16BBB-'/	8D-\ 8d-\	.
16BB-'/JJ	.	.
=63	=63	=63
16r	4.E-\ 4.e-\	.
16CC'/LL	.	.
16EE-'/	.	.
16AA-'/JJ	.	.
16C'/LL	.	.
16CC'/	.	.
16DD-'/	8F\ 8f\	.
16D-'/JJ	.	.
=64:|!	=64:|!	=64:|!
*>A2	*>A2	*>A2
8EEn'/	16r	.
.	16C'/LL	>
8r	16GG'/	.
.	16C'/JJ	.
8EE'/	16r	.
.	16C'/LL	.
8r	16GG'/	.
.	16C'/JJ	.
=65	=65	=65
8EEn'/	16r	.
.	16C'/LL	.
8r	16GG'/	.
.	16C'/JJ	.
8EE'/	16r	.
.	16C'/LL	.
8r	16GG'/	.
.	16C'/JJ	.
*	*clefG2	*clefG2
=66	=66	=66
*>B	*>B	*>B
16r	4.c/ 4.f/ 4.an/	p
16FF'\LL	.	.
16AAn'\	.	.
16C'\JJ	.	.
16F'\LL	.	.
16FF'\	.	.
16GG'\	8c/ 8en/ 8b-/	.
16G'\JJ	.	.
=67	=67	=67
16r	4.c/ 4.f/ 4.cc/	.
16AAn'\LL	.	.
16C'\	.	.
16F'\JJ	.	.
16An'\LL	.	.
16AA'\	.	.
16BB-'\	[8dn/ 8ddn/	.
16B-\JJ	.	.
=68	=68	=68
16GG'\LL	8d/] (8b-/L	.
16G'\	.	.
16EEn'\	8g/ 8cc/)	.
16En'\JJ	.	.
16FF'\LL	8c'/ 8an'/	.
16F'\	.	.
16AAn'\	8c'/ 8f'/J	.
16An'\JJ	.	.
=69	=69	=69
16C'\LL	[4en/ [4g/	p
16c'\	.	.
16c'\	.	.
16c\JJ	.	.
16c'\LL	16e/] 16g/LL]	.
16B-'\	16c'/ 16e'/	.
16An'\	16dn'/ 16f'/	.
16G'\JJ	16e'/ 16g'/JJ	.
=70	=70	=70
16F'\LL	4.c/ 4.f/ 4.an/	p
16FF'\	.	.
16AAn'\	.	.
16C'\JJ	.	.
16F'\LL	.	.
16FF'\	.	.
16GG\	8c/ 8en/ 8b-/	.
16G'\JJ	.	.
=71	=71	=71
16r	4.c/ 4.f/ 4.cc/	.
16AAn'\LL	.	.
16C'\	.	.
16F'\JJ	.	.
16An'\LL	.	.
16AA'\	.	.
16BB-'\	8d-/ 8f/ 8dd-/	.
16B-'\JJ	.	.
=72	=72	=72
8C'\ 8c'\	16e-'\ 16ee-'\LL	<
.	16aan'\	.
*clefG2	*	*
16.r	16ccc'\	.
.	16aa'\JJ	.
32e-/ 32g-/	.	.
8e-'/ 8g-'/	16ccc'\LL	.
.	16aa'\	.
16.r	16ccc'\	.
.	16aa'\JJ	.
32e-/ 32g-/	.	.
=73	=73	=73
8e-'/ 8g-'/	16ccc'\LL	>
.	16aan'\	.
16.r	16ccc'\	.
.	16aa'\JJ	.
32e-/ 32g-/	.	.
8d-'/ 8f'/	16bb-'\LL	.
.	16ff'\	.
*clefF4	*	*
16.r	16dd-\	.
.	16b-'\JJ	.
32D-\ 32F\	.	.
=74	=74	=74
8C'\ 8E-'\ 8G-'\	16an'\LL	<
.	16aan'\	.
*clefG2	*	*
16.r	16ccc'\	.
.	16aa'\JJ	.
32e-/ 32g-/	.	.
8e-'/ 8g-'/	16ccc'\LL	.
.	16aa'\	.
16.r	16ccc'\	.
.	16aa'\JJ	.
32e-/ 32g-/	.	.
=75	=75	=75
8e-'/ 8g-'/	16ccc'\LL	>
.	16aan'\	.
16.r	16ccc'\	.
.	16aa'\JJ	.
32e-/ 32g-/	.	.
8d-'/ 8f'/	16bb-'\LL	.
.	16ff'\	.
16.r	16dd-'\	.
.	16b-'\JJ	.
32d-/ 32f/	.	.
=76	=76	=76
8dn'/ 8f'/ 8a-'/	16bn'\LL	.
.	16bbn'\	.
16.r	16dddn'\	.
.	16bb'\JJ	.
32f/ 32a-/	.	.
8e-'/ 8g'/	16ccc'\LL	.
.	16gg'\	.
16.r	16ee-'\	.
.	16cc'\JJ	.
32e-/ 32g/	.	.
=77	=77	=77
8f'/ 8a-'/	16bn'\LL	.
.	16bbn'\	.
16.r	16dddn'\	.
.	16bb'\JJ	.
32f/ 32a-/	.	.
8e-/ 8g/	16ccc'\LL	.
.	16gg'\	.
8r	16ee-'\	.
.	16cc'\JJ	.
*clefF4	*	*
=78	=78	=78
4r	16gg'\LL	<
.	16ee-'\	.
.	16cc'\	.
.	16g'\JJ	.
16e-'\LL	16ee-'\LL	.
16c'\	16cc'\	.
16G'\	16g'\	.
16E-'\JJ	16e-'\JJ	.
=79	=79	=79
16c'\LL	16cc'/LL	.
16G'\	16g'/	.
16E-'\	16e-'/	.
16C'\JJ	16c'/JJ	.
16G'\LL	16g'/LL	.
16E-'\	16e-'/	.
16C'\	16c'/	.
16GG'\JJ	16G'/JJ	.
*	*clefF4	*clefF4
=80	=80	=80
16E-'/LL	16e-'\LL	.
16C'/	16c'\	.
16GG'/	16G'\	.
16EE-'/JJ	16E-'\JJ	.
16C'/LL	16c'\LL	.
16GG'/	16G'\	.
16EE-'/	16E-'\	.
16CC'/JJ	16C'\JJ	.
=81	=81	=81
16GGG'/LL	16GG'\LL	.
16GG'/	16G'\	.
16BBn'/	16Bn'\	.
16GG'/JJ	16G'\JJ	.
16C'/LL	16c'\LL	.
16GG'/	16G'\	.
16EE-'/	16E-'\	.
16CC'/JJ	16C'\JJ	.
=82	=82	=82
16GGG'/LL	16GG'\LL	.
16GG'/	16G'\	.
16BBn'/	16Bn'\	.
16GG'/JJ	16G'\JJ	.
16C'/LL	16c'\LL	.
16GG'/	16G'\	.
16EE-'/	16E-'\	.
16CC'/JJ	16C'\JJ	.
=83	=83	=83
16GGG'/LL	16GG'/LL	p
16AAAn'/	16AAn'/	.
16BBBn'/	16BB-'/	.
16CC'/JJ	16C'/JJ	.
16DDn'/LL	16Dn'\LL	.
16EEn'/	16En'\	.
16FF'/	16F'\	.
16FF#'/JJ	16F#'\JJ	.
=84	=84	=84
16GG/LL	16G'\LL	.
16AAn/	16An'\	.
16BB-'/	16B-'\	.
16BBn'/JJ	16Bn'\JJ	.
16C'/LL	16c'\LL	.
16C#'/	16c#'\	.
16Dn'/	16dn'\	.
16D#'/JJ	16d#'\JJ	.
*	*clefG2	*clefG2
=85	=85	=85
16r	4.G/ 4.c/ 4.en/	p
16CC'/LL	.	.
16EEn'/	.	.
16GG'/JJ	.	.
16C'/LL	.	.
16CC'/	.	.
16DDn'/	8G/ 8Bn/ 8f/	.
16Dn'/JJ	.	.
=86	=86	=86
16r	4.G/ 4.c/ 4.g/	.
16EEn'/LL	.	.
16GG'/	.	.
16C'/JJ	.	.
16En'/LL	.	.
16EE'/	.	.
16FF'/	[8An/ 8an/	.
16F'/JJ	.	.
=87	=87	=87
16DDn'/LL	8A/] (8f/L	.
16Dn'/	.	.
16BBBn'/	8dn/ 8g/)	.
16BBn'/JJ	.	.
16CC'/LL	8G/ 8en/	.
16C'/	.	.
16EEn'/	8G/ 8c/J	.
16En'/JJ	.	.
=88	=88	=88
16GG'\LL	4.Bn/ 4.dn/	.
16G'\	.	.
16G'\	.	.
16G'\JJ	.	.
16G'\LL	.	.
16F'\	.	.
16En'\	(40g\LLL	.
.	40an\	.
.	40bn\	.
16D-'\JJ	.	.
.	40cc\	.
.	40ddn\JJJ)	<
=89	=89	=89
16r	4.een\	.
16C\LL	.	.
16En'\	.	.
16G'\JJ	.	.
16c'\LL	.	.
16C'\	.	.
16Dn'\	8ff\	.
16dn'\JJ	.	.
=90	=90	=90
16r	4.gg\	.
16En'\LL	.	.
16G'\	.	.
16c'\JJ	.	.
16en'\LL	.	.
16E'\	.	.
16F'\	(48cc\LLL	.
.	48ddn\	.
.	48een\	.
16f'\JJ	48ff\	.
.	48gg\	.
.	48aa-\JJJ)	.
=91	=91	=91
16r	4.bb-\	.
16G'\LL	.	.
16c'\	.	.
16en'\JJ	.	.
16g'\LL	.	.
16G'\	.	.
16A-'\	8ccc\	.
16a-'\JJ	.	.
=92	=92	=92
16r	8ddd-\	p
16B-'\LL	.	.
16d-'\	16r	.
16en'\JJ	(64gg\LLLL	.
.	64aa-\	.
.	64bb-\	.
.	64ccc\JJJJ	.
16r	8ddd-'\)	.
16B-'\LL	.	.
16d-'\	16r	.
16e'\JJ	(64g\LLLL	.
.	64a-\	.
.	64b-\	.
.	64cc\JJJJ	.
=93	=93	=93
16r	8dd-'\)	.
16B-'\LL	.	.
*	*clefF4	*clefF4
16d-'\	16r	.
16en'\JJ	(64GG/LLLL	f
.	64AA-/	.
.	64BB-/	.
.	64C/JJJJ	.
16r	8D-'/)	.
16B-'\LL	.	.
16d-'\	16r	.
16e'\JJ	(64D-/LLLL	.
.	64C/	.
.	64BB-/	.
.	64AA-/JJJJ	.
=94	=94	=94
16r	8GG'/)	.
16B-'\LL	.	.
*	*clefG2	*clefG2
16d-\	16r	.
16en'\JJ	(64gg\LLLL	p
.	64aa-\	.
.	64bb-\	.
.	64ccc\JJJJ	.
16r	8ddd-'\)	.
16B-'\LL	.	.
16d-'\	16r	.
16e'\JJ	(64g\LLLL	.
.	64a-\	.
.	64b-\	.
.	64cc\JJJJ	.
=95	=95	=95
16r	8dd-'\)	.
16B-'\LL	.	.
*	*clefF4	*clefF4
16d-'\	16r	.
16en'\JJ	(64GG/LLLL	f
.	64AA-/	.
.	64BB-/	.
.	64C/JJJJ	.
16r	8D-'/)	.
16B-'\LL	.	.
16d-'\	16r	.
16e'\JJ	(64D-/LLLL	.
.	64C/	.
.	64BB-/	.
.	64AA-/JJJJ	.
=96	=96	=96
16r	8GG'/)	p
16B-'\LL	.	.
16d-'\	16r	.
16e-'\JJ	(64GG/LLLL	<
.	64AA-/	.
.	64BB-/	.
.	64C/JJJJ	.
16r	8D-'/)	.
16B-'\LL	.	.
16d-'\	16r	.
16en'\JJ	(64D-/LLLL	.
.	64C/	.
.	64BB-/	.
.	64AA-/JJJJ	.
=97	=97	=97
16r	8GG'/)	.
16B-'\LL	.	.
16d-'\	16r	.
16e-'\JJ	(64GG/LLLL	.
.	64AA-/	.
.	64BB-/	.
.	64C/JJJJ	.
16r	8D-'/)	.
16B-'\LL	.	.
16d-'\	16r	.
16en'\JJ	(64D-/LLLL	.
.	64C/	.
.	64BB-/	.
.	64AA-/JJJJ	.
=98	=98	=98
16r	16GG'/)	.
16B-'\ 16d-'\ 16e-'\	16r	.
8r	16B-'\LL	.
.	16A-'\JJ	.
4r	16G'\LL	.
.	16F'\	.
.	16E-'\	.
.	16Dn'\JJ	.
=99	=99	=99
16r	16E-'\	.
16EE-'/	16r	.
8r	16d-'\LL	.
.	16c'\JJ	.
4r	16B-'\LL	.
.	16A-'\	.
.	16G'\	.
.	16F'\JJ	.
=100	=100	=100
16r	16E-'\	.
16EE-'/	16r	.
*	*clefG2	*clefG2
16B-'\LL	16bb-'\LL	.
16A-'\JJ	16aa-'\JJ	.
16G'\LL	16gg'\LL	.
16F'\	16ff'\	.
16E-'\	16ee-'\	.
16Dn'\JJ	16ddn'\JJ	.
=101	=101	=101
16r	16ee-'\	.
16EE-'/	16r	.
16d-'\LL	16ddd-'\LL	.
16c'\JJ	16ccc'\JJ	.
16B-'\LL	16bb-'\LL	.
16A-'\	16aa-\	.
16G'\	16gg'\	.
16F'\JJ	16ff'\JJ	.
=102	=102	=102
16E-'\LL	16ee-'\	.
16EE-'\	16r	.
16d-'\	16ddd-'\LL	.
16c'\JJ	16ccc'\JJ	.
16B-'\LL	16bb-'\LL	.
16A-'\	16aa-'\	.
16G'\	16gg\	.
16F'\JJ	16ff'\JJ	.
=103	=103	=103
16E-'/LL	16ee-'\LL	.
16Dn'/	16ddn'\	.
16D-'/	16dd-'\	.
16C'/JJ	16cc'\JJ	.
16BB-'/LL	16b-'\LL	.
16AA-'/	16a-'\	.
16GG'/	16g'\	.
16FF'/JJ	16f'\JJ	.
=104	=104	=104
*^	*	*
4r	8EE-'/	16e-'/LL	.
.	.	16dn'/	.
.	8r	16d-'/	.
.	.	16c'/JJ	>
16B-'/LL	4r	4r	.
16A-'/	.	.	.
16G'/	.	.	.
16F'/JJ	.	.	.
*v	*v	*	*
=105	=105	=105
16E-/	16r	.
16Dn\LL	16r	.
16D-'\	8r	.
16C'\JJ	.	.
16BB-'\LL	4r	.
16AA-'\	.	.
16GG'\	.	.
16FF'\JJ	.	.
=106	=106	=106
(8EEn'/L	2r	p
8EE-'/	.	.
8DDn'/	.	.
8DD-'/J)	.	.
=107	=107	=107
(8CC'/L	2r	.
8BBBn'/	.	.
8BBB-'/	.	.
8AAAn'/J)	.	.
*	*clefF4	*clefF4
=108	=108	=108
16r	4.E-\ 4.A-\ 4.c\	p
16AAA-'/LL	.	.
16CC'/	.	.
16EE-'/JJ	.	.
16AA-'/LL	.	.
16AAA-'/	.	.
16BBB-'/	8E-\ 8G\ 8d-\	.
16BB-'/JJ	.	.
=109	=109	=109
16r	4.E-\ 4.A-\ 4.e-\	.
16CC'/LL	.	.
16EE-'/	.	.
16AA-/JJ	.	.
16C'/LL	.	.
16CC'/	.	.
16DD-'/	[8F\ 8f\	.
16D-'/JJ	.	.
=110	=110	=110
16BBB-'/LL	8F\] (8d-\L	.
16BB-'/	.	.
16GGG'/	8B-\ 8e-\)	.
16GG'/JJ	.	.
16AAA-'/LL	8E-\ 8c\	.
16AA-'/	.	.
16CC'/	8E-\ 8A-\J	.
16C'/JJ	.	.
=111	=111	=111
16EE-'\LL	[4G\ [4B-\	.
16E-'\	.	.
16E-'\	.	.
16E-'\JJ	.	.
16E-'\LL	16G\] 16B-\LL]	.
16D-'\	16E-'\ 16G'\	.
16C'\	16F'\ 16A-'\	.
16BB-'\JJ	16G'\ 16B-'\JJ	.
=112	=112	=112
16AA-'/LL	4.E-\ 4.A-\ 4.c\	.
16AAA-'/	.	.
16CC'/	.	.
16EE-'/JJ	.	.
16AA-'/LL	.	.
16AAA-'/	.	.
16BBB-'/	8E-\ 8G\ 8d-\	.
16BB-'/JJ	.	.
=113	=113	=113
16r	4.E-\ 4.A-\ 4.e-\	.
16CC'/LL	.	.
16EE-'/	.	.
16AA-'/JJ	.	.
16C'/LL	.	.
16CC'/	.	.
16DD-'/	[8F\ 8f\	.
16D-'/JJ	.	.
=114	=114	=114
16BBB-'/LL	8F\] (8d-\L	.
16BB-'/	.	.
16GGG'/	8B-\ 8e-\)	.
16GG'/JJ	.	.
16AAA-/LL	8E-'\ 8c'\	.
16AA-'/	.	.
16CC'/	8E-'\ 8A-'\J	.
16C'/JJ	.	.
=115	=115	=115
16EE-'/LL	4D-\ 4E-\ (4B-\	.
16EE-'/	.	.
16GG'/	.	.
16EE-'/JJ	.	.
8AAA-'/ 8AA-'/	8C'\ 8E-'\ 8A-'\)	.
*clefG2	*clefG2	*clefG2
8A-/ 8a-/	8cc\ 8aa-\	.
=116	=116	=116
4e-/ (4g/	4dd-\ (4bb-\	.
8A-/ 8a-/)	8cc\ 8aa-\)	.
*clefF4	*	*
8c'\	8cc'\	pp
=117	=117	=117
8..B-\L	8..b-/L	.
32A-\Jkk	32a-/Jkk	.
8G'\L	8g'/L	.
8F'\J	8f'/J	.
=118	=118	=118
4En\	4en/	.
8r	8r	.
8F\	8f/	.
=119	=119	=119
8..G\L	8..g/L	.
32F'\Jkk	32f'/Jkk	.
8En'\L	8en'/L	.
8Dn'\J	8dn'/J	.
=120	=120	=120
4C/	4c/	.
8r	8r	.
16.r	16.r	.
32C/	32c/	.
=121	=121	=121
8C/	8c/	.
16.r	16.r	.
32C/	32c/	.
8C/	8c/	.
16.r	16.r	.
32C/	32c/	.
=122	=122	=122
8C/	8c/	.
8r	8r	.
8r	8r	.
16.r	16.r	.
32D-/	32d-/	.
=123	=123	=123
8D-/	8d-/	.
16.r	16.r	.
32D-/	32d-/	.
8D-/	8d-/	.
16.r	16.r	.
32D-/	32d-/	.
=124	=124	=124
8D-/	8d-/	.
8r	8r	.
8r	8r	.
16.r	16.r	.
32D-/	32d-/	f
=125	=125	=125
(4D-/	(4d-/	.
8BB-'/L)	8B-'/L)	.
8GG'/J	8G'/J	.
*	*clefF4	*clefF4
=126	=126	=126
4.EE-/	4.E-;\	.
8r	(40E-\LLL	p
.	40F\	.
.	40G\	.
.	40A-\	.
.	40B-\JJJ)	.
=127	=127	=127
*	*^	*
16r	[4c/	16r	.
16AAA-'/LL	.	16E-'\LL	.
16CC'/	.	16E-'\	.
16EE-'/JJ	.	16E-'\JJ	.
16AA-'/LL	16c/LL]	16E-'\	.
16GG'/	16Bn'/	16r	.
16AA-'/	16c'/	8r	.
16BB-'/JJ	16d-'/JJ	.	.
=128	=128	=128	=128
16C'/LL	[4e-/	16r	.
16CC'/	.	16A-'\LL	.
16EE-'/	.	16A-'\	.
16AA-'/JJ	.	16A-'\JJ	.
16C'/LL	16e-/LL]	16A-'\	.
16BBn'/	16dn'/	16r	.
16C'/	16e-'/	8r	.
16D-'/JJ	16f'/JJ	.	.
*	*v	*v	*
=129	=129	=129
16BBB-'/LL	8F\ (8d-\L	.
16BB-'/	.	.
16GGG'/	8B-\ 8e-\)	.
16GG'/JJ	.	.
16AAA-'/LL	8E-'\ 8c'\	.
16AA-'/	.	.
16CC'/	8E-'\ 8A-'\J	.
16C'/JJ	.	.
=130	=130	=130
16EE-'/LL	[4G\ [4B-\	.
16E-'/	.	.
16E-'/	.	.
16E-'/JJ	.	.
16E-'/LL	16G\] 16B-\LL]	.
16D-'/	16E-'\ 16G'\	.
16C'/	16F'\ 16A-'\	.
16BB-'/JJ	16G'\ 16B-'\JJ	.
=131	=131	=131
*	*^	*
16AA-'/LL	(8.c/L	16A-'\LL	.
16AAA-'/	.	16E-\	.
16AA-'/	.	16E-\	.
16GG'/JJ	16Bn/Jk)	16E-'\JJ	.
16AA-'/LL	16c'/LL	16E-'\	.
16GG'/	16B'/	16r	.
16AA-'/	16c'/	8r	.
16BB-'/JJ	16d-'/JJ	.	.
=132	=132	=132	=132
16C'/LL	(8.e-/L	16r	.
16CC'/	.	16A-'\LL	.
16C'/	.	16A-\	.
16BBn'/JJ	16dn/Jk)	16A-'\JJ	.
16C'/LL	16e-/LL	16A-'\	.
16BB'/	16d'/	16r	.
16C'/	16e-'/	16r	.
16D-'/JJ	16f'/JJ	16F\	.
*	*v	*v	*
=133	=133	=133
16BBB-'/LL	8F\ (8d-\L	.
16BB-'/	.	.
16GGG'/	8B-\ 8e-\)	.
16GG'/JJ	.	.
16AAA-'/LL	8E-'\ 8c'\	.
16AA-'/	.	.
16CC'/	8E-'\ 8A-'\J	.
16C'/JJ	.	.
=134	=134	=134
16EE-'/LL	4D-\ 4E-\ (4B-\	.
16EE-'/	.	.
16GG'/	.	.
16EE-'/JJ	.	.
8AAA-/ 8AA-/	8C'\ 8E-'\ 8A-'\)	.
*clefG2	*clefG2	*clefG2
8A-/ 8a-/	8cc\ 8aa-\	.
=135	=135	=135
4e-/ (4g/	4dd-\ (4bb-\	>
8A-/ 8a-/)	8cc\ 8aa-\)	.
8cc'\	8ccc'\	pp
=136	=136	=136
8..b-/L	8..bb-\L	.
32a-/Jkk	32aa-\Jkk	.
8g'/L	8gg'\L	.
8f'/J	8ff'\J	.
=137	=137	=137
4en/	4een\	.
8r	8r	.
8f/	8ff\	.
=138	=138	=138
8..g/L	8..gg\L	.
32f/Jkk	32ff\Jkk	.
8en'/L	8een'\L	.
8dn'/J	8ddn'\J	.
=139	=139	=139
4c/	4cc\	.
8r	8r	.
16.r	16r	.
.	16cc\	.
32c/	.	.
=140	=140	=140
8c/	8cc\	.
16.r	16.r	.
32c/	32cc\	.
8c/	8cc\	.
16.r	16.r	.
32c/	32cc\	.
=141	=141	=141
8c/	8cc\	.
8r	8r	.
8r	8r	.
*clefF4	*	*
16.r	16.r	.
32DD-/ 32D-/	32dd-\ 32ddd-\	ff
=142	=142	=142
8DD-/ 8D-/	8dd-\ 8ddd-\L	.
16B-'\LL	16g-'\L	p
16d-'\JJ	16b-'\JJ	.
16c-'\LL	16a-'/LL	.
16d-'\	16cc-'/	.
16A-'\	16f'/	.
16d-'\JJ	16a-'/JJ	.
=143	=143	=143
16B-'\LL	16g-'/LL	.
16d-'\	16b-'/	.
16B-'\	16g-'/	.
16d-'\JJ	16b-'/JJ	.
16c-'\LL	16a-'/LL	.
16d-'\	16cc-'/	.
16A-'\	16f'/	.
16d-'\JJ	16a-'/JJ	.
=144	=144	=144
8B-'\	16g-'\LL	.
.	16b-'\	.
16r	16dd-'\	.
16G-'\	16b-'\JJ	.
*clefG2	*	*
16B-'/LL	16dd-'\LL	.
16d-'/	16gg-'\	.
16g-'/	16bb-'\	.
16d-'/JJ	16gg-'\JJ	.
=145	=145	=145
16g-'/LL	16bb-'\LL	.
16a-'/	16ccc-'\	.
16b-'/	16ddd-'\	.
16a-'/JJ	16ccc-'\JJ	.
16g-'/LL	16bb-'\LL	.
16a-'/	16ccc-'\	.
16g-'/	16bb-'\	.
16f-'/JJ	16aa-'\JJ	.
*clefF4	*	*
=146	=146	=146
8EE-/ 8E-/	8ee-\ 8ggn\ 8eee-\	ff
16Gn'\LL	16e-'/LL	p
16B-'\JJ	16gn'/JJ	.
16A-'\LL	16f'/LL	.
16c-'\	16a-'/	.
16F'\	16dn'/	.
16A-'\JJ	16f'/JJ	.
=147	=147	=147
16G'\LL	16e-'/LL	.
16B-'\	16g'/	.
16G'\	16e-'/	.
16B-'\JJ	16g'/JJ	.
16A-'\LL	16f'/LL	.
16c-'\	16a-'/	.
16F'\	16dn'/	.
16A-'\JJ	16f'/JJ	.
=148	=148	=148
16G'\ 16B-'\	16e-'/LL	<
16r	16g'/	.
16r	16b-'/	.
16E-'\	16g'/JJ	.
16G'\LL	16b-'\LL	.
16B-'\	16dd-'\	.
16d-'\	16een'\	.
16B-'\JJ	16dd-'\JJ	.
*clefG2	*	*
=149	=149	=149
16d-/LL	16een'\LL	.
16en'/	16ggn'\	.
16g'/	16bb-'\	.
16e'/JJ	16gg'\JJ	.
16g'\LL	16bb-'\LL	.
16b-'\	16gg'\	.
16dd-'\JJ	16bb-'\	.
32r	16gg'\JJ	.
32dd-\ 32ff-\	.	.
=150	=150	=150
8dd-'\ 8ff-'\	16bb-'\LL	<
.	16gg'\	.
16.r	16bb-'\	.
.	16gg'\JJ	.
32dd-\ 32ff-\	.	.
8dd-'\ 8ff-'\	16bb-'\LL	.
.	16gg'\	.
16.r	16bb-'\	.
.	16gg'\JJ	.
32dd-\ 32ff-\	.	.
=151	=151	=151
8dd-'\ 8ff-'\	16bb-'\LL	>
.	16gg'\	.
16.r	16bb-'\	.
.	16gg'\JJ	.
32dd-\ 32ff-\	.	.
8cc'\ 8ee-'\	16aa-'\LL	.
.	16ee-'\	.
16.r	16cc'\	.
.	16a-'\JJ	.
32c/ 32e-/	.	.
=152	=152	=152
8d-'/ 8f-'/	16g'\LL	<
.	16gg'\	.
16.r	16bb-'\	.
.	16gg'\JJ	.
32d-/ 32f-/	.	.
8d-'/ 8f-'/	16bb-'\LL	.
.	16gg'\	.
16.r	16bb-'\	.
.	16gg'\JJ	.
32d-/ 32f-/	.	.
=153	=153	=153
8d-'/ 8f-'/	16bb-'\LL	.
.	16gg'\	.
16r	16bb-'\	.
32d-/ 32f-/	16gg'\JJ	.
8c'/ 8e-'/	.	.
.	(16aa-'\LL	.
.	16ee-'\)	.
16.r	.	.
.	16cc'\	.
16c/ 16e-/	16a-'\JJ	.
=154	=154	=154
8d-'/ 8f-'/	16g'\LL	>
.	16gg'\	.
16.r	16bb-'\	.
.	16gg'\JJ	.
32d-/ 32f-/	.	.
8c'/ 8e-'/	16aa-'\LL	.
.	16ee-'\	.
16.r	16cc'\	.
.	16a-'\JJ	.
32c/ 32e-/	.	.
=155	=155	=155
8d-'/ 8f-'/	16g'\LL	.
.	16gg'\	.
16.r	16bb-'\	.
.	16gg'\JJ	.
32d-/ 32f-/	.	.
8c'/ 8e-'/	16aa-'\LL	>
.	16ee-'\	.
*clefF4	*	*
16.r	16cc'\	.
.	16a-'\JJ	.
32C/	.	.
=156	=156	=156
*^	*	*
4r	8D-\	16fn/LL	.
.	.	16d-/	.
.	16.r	16A-/	.
.	.	16F/JJ	.
.	32DD-\	.	.
16E-/LL	8EE-\	4r	.
16BB-/	.	.	.
16GG/	16.r	.	.
16G/JJ	.	.	.
.	32EE-\	.	.
*v	*v	*	*
=157	=157	=157
16AAA-'\LL	8A-'/	pp
16E-'\	.	.
16A-'\	16r	.
16E-'\JJ	16e-'/	.
16A-'\LL	8c'/	.
16E-'\	.	.
16A-'\	16r	.
16E-'\JJ	16a-'/	.
=158	=158	=158
16A-'\ 16c'\LL	8e-'/	.
16E-'\ 16A-'\	.	.
16A-'\ 16c'\	16r	.
16E-'\ 16A-'\JJ	16cc'\	.
16B-'\ 16d-'\LL	(16g\LL	.
16E-'\ 16B-'\	16dd-\)	.
16B-'\ 16d-'\	16b-'\	.
16E-'\ 16B-'\JJ	16g'\JJ	.
=159	=159	=159
16AA-'\LL	8a-'\	.
16E-'\ 16A-'\	.	.
16A-'\ 16c'\	16r	.
16E-'\ 16A-'\JJ	16ee-'\	.
16A-'\ 16c'\LL	8cc'\	.
16E-'\ 16A-'\	.	.
16A-'\ 16c'\	16r	.
16E-'\ 16A-'\JJ	16aa-'\	.
=160	=160	=160
16A-'\ 16c'\LL	8ee-'\	.
16E-'\ 16A-'\	.	.
16A-'\ 16c'\	16r	.
16E-'\ 16A-'\JJ	16ccc'\	.
16B-'\ 16d-'\LL	(16gg\LL	.
16E-'\ 16B-'\	16ddd-\)	.
16B-'\ 16d-'\	16bb-\	.
16E-'\ 16B-'\JJ	16gg'\JJ	.
=161	=161	=161
16AA-'\LL	8aa-'\	.
16E-'\ 16A-'\	.	.
16A-'\ 16c'\	16r	.
16E-'\ 16A-'\JJ	16cc\	.
16B-'\ 16d-'\LL	(16g\LL	.
16E-'\ 16B-'\	16dd-\)	.
16B-'\ 16d-'\	16b-'\	.
16E-'\ 16B-'\JJ	16g'\JJ	.
=162	=162	=162
16AA-'\LL	8a-/	.
16E-'\ 16A-'\	.	.
16A-'\ 16c'\	16r	.
16E-'\ 16A-'\JJ	16ccc'\	.
16B-'\ 16d-'\LL	(16gg\LL	.
16E-'\ 16B-'\	16ddd-\)	.
16B-'\ 16d-'\	16bb-'\	.
16E-'\ 16B-'\JJ	16gg'\JJ	.
=163	=163	=163
8A-\ 8c\	16aa-'\LL	pp
.	16ccc'\	.
8r	16ee-'\	.
.	16aa-'\JJ	.
4r	16cc'\LL	.
.	16ee-'\	.
.	16dd-'\	.
.	16b-'\JJ	.
=164	=164	=164
16A-'\LL	16a-'/LL	.
16c'\	16cc'/	.
16E-'\	16e-'/	.
16A-'\JJ	16a-'/JJ	.
16C'/LL	16c'/LL	.
16E-'/	16e-'/	.
16D-'/	16d-'/	.
16BB-'/JJ	16B-'/JJ	.
*	*clefF4	*clefF4
=165	=165	=165
16AA-'/LL	16A-'\LL	.
(16BBn/	(16Bn\	.
16C/)	16c\)	.
16GG'/JJ	16G'\JJ	.
16AA-'/LL	16A-'\LL	.
16EEn'/	16En'\	.
16FF'/	16F'\	.
16CC'/JJ	16C'\JJ	.
=166	=166	=166
16DD-'/LL	16D-'\LL	.
(16C/	(16c\	.
16D-/)	16d-\)	.
16AAn'/JJ	16An'\JJ	.
16BB-'/LL	16B-'\LL	.
16FF#'/	16F#'\	.
16GG'/	16G'\	.
16DDn'/JJ	16Dn'\JJ	.
=167	=167	=167
16EE-'/LL	16E-'\LL	<
16FFn'/	16Fn'\	.
16GG'/	16G'\	.
16AA-'/JJ	16A-'\JJ	.
*	*clefG2	*clefG2
16BB-'/LL	16B-'/LL	.
16C'/	16c'/	.
16D-'/	16d-'/	.
16E-'/JJ	16e-'/JJ	.
=168	=168	=168
16F'\LL	16f'/LL	.
16G'\	16g'/	.
16A-'\	16a-'/	.
16B-'\JJ	16b-'/JJ	.
16c'\LL	16cc'/LL	.
16G'\	16g'/	.
16A-'\	16a-'/	>
16En'\JJ	16en'/JJ	.
=169	=169	=169
16F'\LL	16f'/LL	.
16C'\	16c'/	.
16D-'\	16d-'/	.
16AAn'\JJ	16An'/JJ	.
16BB-'\LL	16B-'/LL	.
16C'\	16c'/	.
16D-'\	16d-'/	.
16Dn'\JJ	16dn'/JJ	.
=170	=170	=170
8E-'\	8e-'/	.
8r	8r	.
*	*clefF4	*clefF4
8EE-'/	8E-'\	p
8r	8r	.
=171	=171	=171
8AAA-'/	8AA-'/	.
8r	8r	.
*	*clefG2	*clefG2
8E-'\ 8e-'\	8ee-'\ 8eee-'\	pp
8r	8r	.
=172	=172	=172
8AA-'\ 8A-'\	8a-'\ 8aa-'\	.
8r	8r	.
8EE-'/ 8E-'/L	8e-'\ 8ee-'\L	.
8EE-'/ 8E-'/J	8e-'\ 8ee-'\J	.
=173	=173	=173
8AAA-'/ 8AA-'/	8A-'/ 8a-'/	.
8r	8r	.
4r	4r	.
==	==	==
*-	*-	*-
!!!ENC: Craig Stuart Sapp
!!!END: 2008/02/25/
